Newaita/actions/24/align-horizontal-top-out.svg

<svg height="24" viewBox="0 0 24 24" width="24" xmlns="http://www.w3.org/2000/svg"><g fill="#424242"><path d="m21.832031 12.09375c0-.273438-.222656-.496094-.496093-.496094h-18.855469c-.273438 0-.496094.222656-.496094.496094s.222656.496094.496094.496094h18.855469c.273437 0 .496093-.222656.496093-.496094zm0 0"/><path d="m14.882812 21.027344c-1.097656 0-1.984374-.886719-1.984374-1.988282v-2.976562c0-1.097656.886718-1.984375 1.984374-1.984375h2.976563c1.101563 0 1.984375.886719 1.984375 1.984375v2.976562c0 1.101563-.882812 1.988282-1.984375 1.988282zm.496094-1.988282h1.984375c.277344 0 .496094-.21875.496094-.496093v-1.984375c0-.273438-.21875-.496094-.496094-.496094h-1.984375c-.273437 0-.496094.222656-.496094.496094v1.984375c0 .277343.222657.496093.496094.496093zm0 0"/><path d="m5.953125 22.019531c-1.097656 0-1.984375-.886719-1.984375-1.988281v-3.96875c0-1.097656.886719-1.984375 1.984375-1.984375h2.976563c1.101562 0 1.984374.886719 1.984374 1.984375v3.96875c0 1.101562-.882812 1.988281-1.984374 1.988281zm.496094-1.988281h1.984375c.277344 0 .496094-.21875.496094-.496094v-2.976562c0-.273438-.21875-.496094-.496094-.496094h-1.984375c-.273438 0-.496094.222656-.496094.496094v2.976562c0 .277344.222656.496094.496094.496094zm0 0"/><path d="m19.84375 8.125c0 1.101562-.882812 1.984375-1.984375 1.984375h-3.96875c-1.097656 0-1.984375-.882813-1.984375-1.984375v-2.976562c0-1.097657.886719-1.984376 1.984375-1.984376h3.96875c1.101563 0 1.984375.886719 1.984375 1.984376zm0 0"/></g></svg>

<?xml version="1.0" encoding="UTF-8"?>
<svg xmlns="http://www.w3.org/2000/svg" xmlns:xlink="http://www.w3.org/1999/xlink" width="24px" height="24px" viewBox="0 0 24 24" version="1.1">
<g id="surface1">
<path style=" stroke:none;fill-rule:nonzero;fill:rgb(25.882354%,25.882354%,25.882354%);fill-opacity:1;" d="M 21.832031 12.09375 C 21.832031 11.820312 21.609375 11.597656 21.335938 11.597656 L 2.480469 11.597656 C 2.207031 11.597656 1.984375 11.820312 1.984375 12.09375 C 1.984375 12.367188 2.207031 12.589844 2.480469 12.589844 L 21.335938 12.589844 C 21.609375 12.589844 21.832031 12.367188 21.832031 12.09375 Z M 21.832031 12.09375 "/>
<path style=" stroke:none;fill-rule:nonzero;fill:rgb(25.882354%,25.882354%,25.882354%);fill-opacity:1;" d="M 14.882812 21.027344 C 13.785156 21.027344 12.898438 20.140625 12.898438 19.039062 L 12.898438 16.0625 C 12.898438 14.964844 13.785156 14.078125 14.882812 14.078125 L 17.859375 14.078125 C 18.960938 14.078125 19.84375 14.964844 19.84375 16.0625 L 19.84375 19.039062 C 19.84375 20.140625 18.960938 21.027344 17.859375 21.027344 Z M 15.378906 19.039062 L 17.363281 19.039062 C 17.640625 19.039062 17.859375 18.820312 17.859375 18.542969 L 17.859375 16.558594 C 17.859375 16.285156 17.640625 16.0625 17.363281 16.0625 L 15.378906 16.0625 C 15.105469 16.0625 14.882812 16.285156 14.882812 16.558594 L 14.882812 18.542969 C 14.882812 18.820312 15.105469 19.039062 15.378906 19.039062 Z M 15.378906 19.039062 "/>
<path style=" stroke:none;fill-rule:nonzero;fill:rgb(25.882354%,25.882354%,25.882354%);fill-opacity:1;" d="M 5.953125 22.019531 C 4.855469 22.019531 3.96875 21.132812 3.96875 20.03125 L 3.96875 16.0625 C 3.96875 14.964844 4.855469 14.078125 5.953125 14.078125 L 8.929688 14.078125 C 10.03125 14.078125 10.914062 14.964844 10.914062 16.0625 L 10.914062 20.03125 C 10.914062 21.132812 10.03125 22.019531 8.929688 22.019531 Z M 6.449219 20.03125 L 8.433594 20.03125 C 8.710938 20.03125 8.929688 19.8125 8.929688 19.535156 L 8.929688 16.558594 C 8.929688 16.285156 8.710938 16.0625 8.433594 16.0625 L 6.449219 16.0625 C 6.175781 16.0625 5.953125 16.285156 5.953125 16.558594 L 5.953125 19.535156 C 5.953125 19.8125 6.175781 20.03125 6.449219 20.03125 Z M 6.449219 20.03125 "/>
<path style=" stroke:none;fill-rule:nonzero;fill:rgb(25.882354%,25.882354%,25.882354%);fill-opacity:1;" d="M 19.84375 8.125 C 19.84375 9.226562 18.960938 10.109375 17.859375 10.109375 L 13.890625 10.109375 C 12.792969 10.109375 11.90625 9.226562 11.90625 8.125 L 11.90625 5.148438 C 11.90625 4.050781 12.792969 3.164062 13.890625 3.164062 L 17.859375 3.164062 C 18.960938 3.164062 19.84375 4.050781 19.84375 5.148438 Z M 19.84375 8.125 "/>
</g>
</svg>
